X:1
T:Title
%%score ( 1 2 ) { 3 | 4 }
L:1/8
Q:1/4=87
M:6/8
K:Ab
V:1 treble nm="Grand Piano, Soprano"
V:2 treble 
V:3 treble nm="Choir Pad, Jesus Is Calling You Now"
V:4 bass 
V:1
 z3 AAA | c>AA B>AA | A3 [GB]>[GB][GB] | [GB][Gc][Gd] [GB]3 | z3 AAA | c>AA B>AA | %6
 A3 [GB]>[GB][GB] | [GB][Ed][Ec] .[EA]2 e | ecc cBB | c2 B- B z z | B/c/d/B/c AAB | %11
 dGA- A3/2 z/ A- | A/A/AB BBc | ccd- d/ z/ [Ad][Ac] | [Ae][EA][EB] [Ed][EG][EA]- | %15
 [EA]2 [ce]- [ce]/[df]/[ce][ce] | [Ac][ce][Bd]- [Bd]3/2 z/ z | z2 [Bd]- [Bd]/[ce]/[Bd][Bd] | %18
 [Ac][GB][Ac]- [Ac]3/2 z/ z | z2 [Ac]- [Ac]/ z/ z A- | A2 [Gd]- [Gd]/ z/ z [GB]- | %21
 [GB]E[EA] [Ec][EA][EB] | [Ed][EG][EA]- [EA]3- | [EA]3 z3 |] %24
V:2
 x6 | x6 | x6 | x6 | x6 | x6 | x6 | x6 | x6 | z .A2 EEA | x6 | x6 | x6 | x6 | x6 | x6 | x6 | x6 | %18
 x6 | x6 | x6 | x6 | x6 | x6 |] %24
V:3
 z3 CCC | E>CC D>CC | C3 E>EE | EEE E3 | z3 CCC | E>CC D>CC | C3 D>DD | DFE .D2 C | %8
 C[K:bass]A,A, B,G,G, | A,2[K:treble] C ECE | EEE CCD- | DDC- C3/2 z/ C- | C/C/CD DDE | %13
 EEF- F/ z/ FE | CCD DB,C- | C2 E- E/E/EC- | C2 D z D[K:bass]B,- | B,2 B,- B,/B,/B,B, | %18
 CDE- E/ z/ EE- | E2 E EEC- | C2 E EED- | DEC ECD | DB,C- C3- | C3 z3 |] %24
V:4
 z3 A,,A,,A,, | z z/ A,,/A,, A,,>A,,A,, | A,,3 E,>E,E, | E,E,E, E,3 | z3 A,,A,,A,, | %5
 A,,>A,,A,, A,,>A,,A,, | A,,3 E,>E,E, | E,E,E, .A,,3 | A,,3 A,,3 | E,,3 E,,2 E,,- | %10
 E,,2 E,,- E,,3/2 z/ E,,- | E,,2 A,,- A,,3/2 z/ A,,- | A,,2 E,,- E,,3/2 z/ A,,- | %13
 A,,2 D,,- D,,/ z/ D,E, | E,E,E, E,E,A,,- | A,,2 A,- A,/A,/A,A,- | A,2 E, z E,E,- | %17
 E,2 E,- E,/E,/E,E, | E,E,A,- A,/ z/ A,A,- | A,2 A, A,A,A,- | A,2 E, E,E,E,- | E,A,A, A,A,E, | %22
 E,E,A,,- A,,3- | A,,3 z3 |] %24

